dist/static/img/vako/svg/tech-ic_06.svg

<svg width="48" height="48" viewBox="0 0 48 48" fill="none" xmlns="http://www.w3.org/2000/svg">
<g clip-path="url(#clip0_3377_562)">
<path d="M0 23.9453C0 30.918 10.7454 36.5706 24 36.5706C37.2546 36.5706 48 30.918 48 23.9453C48 16.9728 37.2546 11.3201 24 11.3201C10.7454 11.3201 0 16.9728 0 23.9453Z" fill="#777BB3"/>
<path d="M13.4778 25.3364C14.4833 25.3364 15.2338 25.151 15.7088 24.7855C16.1786 24.4238 16.5031 23.797 16.6732 22.9227C16.8318 22.1055 16.7713 21.5349 16.4937 21.227C16.2098 20.9125 15.5959 20.753 14.6693 20.753H13.0625L12.1718 25.3364H13.4778ZM8.22259 30.9824C8.148 30.9824 8.07717 30.9491 8.02975 30.8914C7.98225 30.8338 7.963 30.758 7.97725 30.6847L10.3379 18.5385C10.3608 18.4211 10.4637 18.3363 10.5833 18.3363H15.6712C17.2702 18.3363 18.4603 18.7704 19.2084 19.6269C19.9605 20.4878 20.1928 21.6913 19.8987 23.2037C19.779 23.8199 19.5732 24.3922 19.2869 24.9045C19.0003 25.4174 18.6216 25.892 18.161 26.3154C17.6097 26.8314 16.9857 27.2056 16.308 27.4257C15.6411 27.643 14.7846 27.7532 13.7623 27.7532H11.7022L11.1138 30.7801C11.091 30.8976 10.9882 30.9824 10.8685 30.9824H8.22259Z" fill="black"/>
<path d="M13.2686 21.003H14.6693C15.7877 21.003 16.1762 21.2484 16.3082 21.3947C16.5272 21.6375 16.5685 22.1495 16.4278 22.8753C16.2696 23.6878 15.9764 24.2639 15.5563 24.5874C15.1261 24.9186 14.4268 25.0864 13.4779 25.0864H12.475L13.2686 21.003ZM15.6712 18.0863H10.5833C10.3439 18.0863 10.1382 18.2559 10.0925 18.4909L7.73185 30.6371C7.70335 30.7837 7.74185 30.9352 7.83677 31.0505C7.93177 31.1658 8.07327 31.2324 8.2226 31.2324H10.8684C11.1079 31.2324 11.3136 31.0628 11.3593 30.8278L11.9083 28.0032H13.7624C14.8109 28.0032 15.6935 27.8888 16.3856 27.6634C17.0974 27.4322 17.7522 27.0401 18.3318 26.4981C18.8111 26.057 19.2059 25.562 19.5051 25.0266C19.8044 24.491 20.0194 23.8937 20.1441 23.2514C20.4537 21.6593 20.2022 20.3845 19.3967 19.4625C18.599 18.5493 17.3455 18.0863 15.6712 18.0863ZM11.8684 25.5864H13.4779C14.5446 25.5864 15.3392 25.3855 15.8613 24.9836C16.3834 24.5816 16.7356 23.9107 16.9186 22.9705C17.0937 22.0678 17.0139 21.4308 16.6794 21.0597C16.3444 20.6886 15.6744 20.503 14.6693 20.503H12.8564L11.8684 25.5864ZM15.6712 18.5863C17.2018 18.5863 18.3184 18.9879 19.0202 19.7914C19.7219 20.5948 19.9333 21.7163 19.6533 23.1561C19.538 23.7492 19.3431 24.2914 19.0687 24.7827C18.7939 25.2743 18.4352 25.7238 17.9919 26.1314C17.4635 26.6258 16.8766 26.9781 16.2308 27.188C15.5849 27.3984 14.7624 27.5032 13.7624 27.5032H11.496L10.8684 30.7324H8.2226L10.5833 18.5863H15.6712Z" fill="white"/>
<path d="M25.9653 27.7532C25.8906 27.7532 25.8199 27.7198 25.7724 27.6622C25.7249 27.6046 25.7056 27.5288 25.7199 27.4555L26.7641 22.0813C26.8634 21.5702 26.8389 21.2033 26.6952 21.0483C26.6072 20.9536 26.3429 20.7947 25.5613 20.7947H23.6694L22.3565 27.5508C22.3337 27.6683 22.2308 27.7532 22.1111 27.7532H19.4861C19.4114 27.7532 19.3407 27.7198 19.2932 27.6622C19.2457 27.6046 19.2264 27.5288 19.2407 27.4555L21.6013 15.3093C21.6242 15.1919 21.7271 15.107 21.8468 15.107H24.4718C24.5464 15.107 24.6172 15.1404 24.6647 15.1979C24.7122 15.2556 24.7314 15.3314 24.7172 15.4047L24.1475 18.3363H26.1827C27.7331 18.3363 28.7844 18.6096 29.3968 19.172C30.0209 19.7456 30.2157 20.6629 29.9757 21.8986L28.8774 27.5508C28.8545 27.6683 28.7517 27.7532 28.6319 27.7532H25.9653Z" fill="black"/>
<path d="M24.4717 14.857H21.8467C21.6072 14.857 21.4015 15.0267 21.3558 15.2616L18.9952 27.4078C18.9667 27.5544 19.0052 27.706 19.1002 27.8213C19.1952 27.9365 19.3367 28.0032 19.486 28.0032H22.111C22.3503 28.0032 22.5562 27.8335 22.6018 27.5986L23.8754 21.0447H25.5612C26.3414 21.0447 26.5052 21.2113 26.5117 21.2185C26.5591 21.2694 26.6213 21.5053 26.5186 22.0336L25.4743 27.4078C25.4458 27.5544 25.4843 27.706 25.5793 27.8213C25.6743 27.9365 25.8158 28.0032 25.9652 28.0032H28.6318C28.8712 28.0032 29.077 27.8335 29.1227 27.5986L30.2209 21.9464C30.4787 20.6196 30.2582 19.6243 29.5658 18.9879C28.9052 18.3812 27.7985 18.0863 26.1826 18.0863H24.4506L24.9625 15.4524C24.9909 15.3059 24.9525 15.1542 24.8575 15.039C24.7625 14.9238 24.621 14.857 24.4717 14.857ZM24.4717 15.357L23.8441 18.5863H26.1826C27.654 18.5863 28.6689 18.8431 29.2275 19.3561C29.7861 19.8695 29.9534 20.7012 29.7302 21.851L28.6318 27.5032H25.9652L27.0094 22.129C27.1282 21.5177 27.0846 21.1007 26.8782 20.8783C26.6718 20.656 26.2327 20.5447 25.5612 20.5447H23.4632L22.111 27.5032H19.486L21.8467 15.357H24.4717Z" fill="white"/>
<path d="M34.1291 25.3364C35.1345 25.3364 35.8851 25.151 36.36 24.7855C36.8298 24.4238 37.1543 23.7971 37.3245 22.9227C37.4831 22.1055 37.4227 21.5349 37.1449 21.227C36.861 20.9125 36.2472 20.753 35.3205 20.753H33.7137L32.823 25.3364H34.1291ZM28.8739 30.9824C28.7993 30.9824 28.7285 30.9491 28.6811 30.8914C28.6336 30.8338 28.6142 30.758 28.6285 30.6847L30.9892 18.5385C31.0121 18.4211 31.1149 18.3363 31.2347 18.3363H36.3224C37.9215 18.3363 39.1116 18.7704 39.8597 19.6269C40.6118 20.4877 40.844 21.6912 40.55 23.2037C40.4302 23.8199 40.2244 24.3922 39.9382 24.9045C39.6516 25.4174 39.2728 25.892 38.8122 26.3154C38.2609 26.8314 37.6369 27.2056 36.9592 27.4257C36.2923 27.643 35.4358 27.7532 34.4136 27.7532H32.3533L31.7652 30.7801C31.7423 30.8976 31.6395 30.9824 31.5197 30.9824H28.8739Z" fill="black"/>
<path d="M33.9199 21.003H35.3206C36.439 21.003 36.8275 21.2484 36.9595 21.3947C37.1786 21.6375 37.2199 22.1495 37.0791 22.8752C36.9209 23.6878 36.6276 24.2639 36.2076 24.5874C35.7774 24.9186 35.0781 25.0864 34.1291 25.0864H33.1264L33.9199 21.003ZM36.3225 18.0863H31.2346C30.9953 18.0863 30.7896 18.2559 30.7439 18.4909L28.3832 30.6371C28.3547 30.7837 28.3932 30.9352 28.4881 31.0505C28.5831 31.1658 28.7246 31.2324 28.874 31.2324H31.5198C31.7591 31.2324 31.965 31.0628 32.0106 30.8278L32.5596 28.0032H34.4136C35.4621 28.0032 36.3448 27.8888 37.0369 27.6634C37.7486 27.4322 38.4036 27.04 38.9832 26.4979C39.4626 26.057 39.8572 25.562 40.1564 25.0266C40.4556 24.491 40.6706 23.8937 40.7954 23.2514C41.105 21.6593 40.8535 20.3844 40.048 19.4624C39.2503 18.5493 37.9969 18.0863 36.3225 18.0863ZM32.5198 25.5864H34.1291C35.1959 25.5864 35.9905 25.3855 36.5126 24.9836C37.0348 24.5816 37.3869 23.9107 37.5699 22.9705C37.7451 22.0678 37.6653 21.4308 37.3306 21.0597C36.9956 20.6886 36.3257 20.503 35.3206 20.503H33.5077L32.5198 25.5864ZM36.3225 18.5863C37.8531 18.5863 38.9696 18.9879 39.6715 19.7914C40.3733 20.5948 40.5846 21.7163 40.3046 23.1561C40.1893 23.7492 39.9944 24.2914 39.72 24.7827C39.4452 25.2743 39.0865 25.7238 38.6431 26.1314C38.1148 26.6258 37.5279 26.9781 36.8821 27.188C36.2362 27.3984 35.4136 27.5032 34.4136 27.5032H32.1473L31.5198 30.7324H28.874L31.2346 18.5863H36.3225Z" fill="white"/>
</g>
<defs>
<clipPath id="clip0_3377_562">
<rect width="48" height="48.0012" fill="white"/>
</clipPath>
</defs>
</svg>

<svg width="48" height="48" viewBox="0 0 48 48" fill="none" xmlns="http://www.w3.org/2000/svg"><g clip-path="url(#clip0_3377_562)"><path d="M0 23.945c0 6.973 10.745 12.626 24 12.626s24-5.653 24-12.626c0-6.972-10.745-12.625-24-12.625S0 16.973 0 23.945z" fill="#777BB3"/><path d="M13.478 25.336c1.005 0 1.756-.185 2.23-.55.47-.362.795-.989.965-1.863.159-.817.098-1.388-.18-1.696-.283-.314-.897-.474-1.824-.474h-1.607l-.89 4.583h1.306zm-5.255 5.646a.25.25 0 01-.246-.297l2.36-12.146a.25.25 0 01.246-.203h5.088c1.6 0 2.79.434 3.537 1.29.753.862.985 2.065.69 3.578a5.708 5.708 0 01-.611 1.7 5.696 5.696 0 01-1.126 1.411 4.938 4.938 0 01-1.853 1.11c-.667.218-1.523.328-2.546.328h-2.06l-.588 3.027a.25.25 0 01-.246.202H8.223z" fill="#000"/><path d="M13.269 21.003h1.4c1.119 0 1.507.245 1.64.392.218.242.26.755.119 1.48-.158.813-.452 1.389-.872 1.712-.43.332-1.13.5-2.078.5h-1.003l.794-4.084zm2.402-2.917h-5.088a.5.5 0 00-.49.405L7.731 30.637a.5.5 0 00.49.595h2.646a.5.5 0 00.491-.404l.55-2.825h1.853c1.049 0 1.931-.114 2.624-.34a5.188 5.188 0 001.946-1.165 5.95 5.95 0 001.173-1.471c.3-.536.514-1.133.64-1.776.309-1.592.057-2.867-.748-3.789-.798-.913-2.051-1.376-3.726-1.376zm-3.803 7.5h1.61c1.067 0 1.861-.2 2.383-.602.522-.402.875-1.073 1.058-2.014.175-.902.095-1.54-.24-1.91-.335-.371-1.005-.557-2.01-.557h-1.813l-.988 5.083zm3.803-7c1.53 0 2.647.402 3.35 1.205.7.804.912 1.925.632 3.365a5.44 5.44 0 01-.584 1.627 5.426 5.426 0 01-1.077 1.348 4.675 4.675 0 01-1.761 1.057c-.646.21-1.469.315-2.469.315h-2.266l-.628 3.23H8.223l2.36-12.147h5.088z" fill="#fff"/><path d="M25.965 27.753a.25.25 0 01-.245-.297l1.044-5.375c.1-.51.075-.878-.069-1.033-.088-.094-.352-.253-1.134-.253H23.67l-1.313 6.756a.25.25 0 01-.245.202h-2.625a.25.25 0 01-.245-.297l2.36-12.147a.25.25 0 01.246-.202h2.625a.25.25 0 01.245.298l-.57 2.931h2.036c1.55 0 2.601.274 3.214.836.624.574.819 1.49.579 2.727l-1.099 5.652a.25.25 0 01-.245.202h-2.667z" fill="#000"/><path d="M24.472 14.857h-2.625a.5.5 0 00-.491.405l-2.36 12.146a.5.5 0 00.49.595h2.625a.5.5 0 00.49-.404l1.274-6.554h1.686c.78 0 .944.166.95.173.048.051.11.287.008.816l-1.045 5.374a.5.5 0 00.491.595h2.667a.5.5 0 00.49-.404l1.099-5.653c.258-1.326.037-2.322-.655-2.958-.66-.607-1.767-.902-3.383-.902H24.45l.511-2.634a.5.5 0 00-.49-.595zm0 .5l-.628 3.23h2.339c1.471 0 2.486.256 3.044.77.56.512.726 1.344.503 2.494l-1.098 5.652h-2.667l1.044-5.374c.12-.611.076-1.028-.13-1.25-.207-.223-.646-.334-1.318-.334h-2.098l-1.352 6.958h-2.625l2.36-12.146h2.626z" fill="#fff"/><path d="M34.13 25.336c1.005 0 1.755-.185 2.23-.55.47-.362.794-.989.965-1.863.158-.817.098-1.388-.18-1.696-.284-.314-.898-.474-1.825-.474h-1.606l-.891 4.583h1.306zm-5.256 5.646a.25.25 0 01-.245-.297l2.36-12.146a.25.25 0 01.246-.203h5.087c1.6 0 2.79.434 3.538 1.29.752.862.984 2.065.69 3.578a5.714 5.714 0 01-.612 1.7 5.697 5.697 0 01-1.126 1.411 4.938 4.938 0 01-1.853 1.11c-.667.218-1.523.328-2.545.328h-2.06l-.589 3.027a.25.25 0 01-.245.202h-2.646z" fill="#000"/><path d="M33.92 21.003h1.4c1.119 0 1.508.245 1.64.392.219.242.26.755.12 1.48-.16.813-.452 1.389-.872 1.712-.43.332-1.13.5-2.079.5h-1.003l.794-4.084zm2.402-2.917h-5.087a.5.5 0 00-.491.405l-2.36 12.146a.5.5 0 00.49.595h2.646a.5.5 0 00.49-.404l.55-2.825h1.854c1.048 0 1.93-.114 2.623-.34a5.189 5.189 0 001.946-1.165c.48-.441.874-.936 1.173-1.471.3-.536.515-1.133.64-1.776.309-1.592.057-2.867-.748-3.789-.798-.913-2.051-1.376-3.726-1.376zm-3.802 7.5h1.61c1.066 0 1.86-.2 2.383-.602.522-.402.874-1.073 1.057-2.014.175-.902.095-1.54-.24-1.91-.334-.371-1.004-.557-2.01-.557h-1.812l-.988 5.083zm3.802-7c1.531 0 2.648.402 3.35 1.205.701.804.913 1.925.633 3.365a5.44 5.44 0 01-.585 1.627 5.424 5.424 0 01-1.077 1.348 4.674 4.674 0 01-1.76 1.057c-.647.21-1.47.315-2.47.315h-2.266l-.627 3.23h-2.646l2.36-12.147h5.088z" fill="#fff"/></g><defs><clipPath id="clip0_3377_562"><path fill="#fff" d="M0 0h48v48.001H0z"/></clipPath></defs></svg>
